X: 86
T: the Stormy Voyage   #2
R: jig
%S: s:2 b:10(5+5
B: O'Neill's 1850 #86
Z: 1999 John Chambers <jc@trillian.mit.edu>
N: Compacted via repeats and multiple endings [JC]
N: Compacted by using labels and play order [JC]
P: Play A1A2 BA2
Q: "With spirit"
M: C
L: 1/8
K: Dm
"^A"[|] ((3A=B^c) !segno!|: (d3e) f2e2 | (d3c) A2(GE) |[1 (D3E) F2G2 | A6 A2 :|[2 A2(GE) D2D2 |
| "^fine"D6 "^B"|[| (AG) | F2F2 F2(ED)| E2E2 E2(D^C) | (D3E) F2G2 | A6 !segno!A2 |]
